x = 72, y = 64, rule = B3/S23
39b2o$38bo2bob2o$37bo2b2obobo$37b2obo4bo$38bo2b2o2bob2o$36bo2bobo2b2o
2bo$35bob3obobo2bo$26bo9bo5bob2o$26b3o8b3o$4b2o23bo10b6o$4bobo4b2o3b2o
6b4o2bo4b3ob2o4bo$7bo3b2o2bobo6bo3b2o4bo3bobob2o$2o3b2obo6bobob2ob2o3b
o4bo2b4obobo$bo2bobob7obobobobo5b6obobo2bo3bo$o3bo2bo8bo3bo2bo4bo6bo2b
o2b4o$4obo2b6o2b2ob6o5b5o3b2o$5b3o4bo2b3obo4bo8bo5bob2o$2o3bobobo4bo5b
ob2o10b2obobobobo$o4bobobob10obo4bo6bo3bobo2bo$b3ob2o2bo12bo3bobo5bo3b
obobo$4bo4b4o2b2o2b2obob3obo4b5o3bo$b2obo7bo2bo4bo2bo4b2o2b5o$bobo7bo
4bo3bo3b4o2bo5bo$10bob4o2b2ob3o4b2o5bo$11bo4b2obobo3b2obobo3b2o3b2o$
12b3obo9bobo2b2obo3bo2bo$14bo2b4o4bo2bo4bo4b3o$15b2o4bo4b3ob3obo$17b5o
7bob2o3b3o$17bob4o3b2obo4b2o3bo$4b2o8b2obo5bobobob2o4bo3bo$5bo8bo2bo2b
o2bobo3bo2b2o3bob2o$5bobo7b2o2bobobo2bo2bo6b2o3bo$6b3ob2o5b5ob3o2b2obo
6b3o3b2o$8b2obo5bo4bo7b2obo4bo5bo2b2o$8b3o7b3obob6o2b2o11bobo$4b2o3bo
10bobobo9b2o8b2obo2b2o10b2o$4bo2bobo17b2obo2bobo7bo3bobobo10bobob2o$6b
2obo2bo8b3o3bo4bo2bo6b3ob2obo14bobobob2o$10b2o16bo3bo2b2ob2o23b2o3bobo
$29b2ob2o6bo5b2o4b2ob2o7bo3bo2bo$22bo9b2o3bo2bo4b3o3b6o2b2o2bo5b2o$21b
3o13bo2bo3bo13bo5b5o$11b2o7b5o12b2obo3b2o4bobo2bobo3bo6bo$11b2o6b2o3b
2o4bo7bobo3bo3bobob2obob11o$10bo8b2ob3o3bobo7bobobobobobobo14bo$9b3o8b
4o5b2o8bobob2ob2o2bobob9o$19bo2bo10bo7bo3bo4bob2o5bo2bo$34bo5b2o3bob3o
5b2o$14b3o7bo7b3o11b2o8bo$15bo7bobo28bo$13b2o9bo12bo16b2o$13b2o20bobo$
36b2o$40bo$41bo$14b2o23b3o$14bobo$15b2o27bo$42bobo$12b2o29b2o$13bo33bo
$10b3o35bo$10bo35b3o!